X: 257
T:Rolling in the Barrel
R:reel
S:me transcribing Mike Rafferty
N:he got this from Willie Kelly
D:recorded by Paddy Canny and P.J. Hayes, thanks Philippe.
Z:Lesl
M:C|
L:1/8
Q:1/2=70
K:Edor
D2|:E2FE BEFE|B2AF DEFD|{EA}E{D}E FE BEFE|B2AF FEED|
~E2FE BEFE|B2AF DEFD|~E2FE BEFE|1 B2AF FEED:|2 B2AF FEe2||
|:e2fe befe|d2df a{b}a fd|e2fe Befe|dBAF BEEd|
eefe befe|d2df a{b}a fd|efge ~f2fe|dBAF BEED:|E6||
<end>
<start>
